modules/framework7-icons/icons/timer_fill.svg

<?xml version="1.0" encoding="UTF-8"?>
<svg width="50px" height="50px" viewBox="0 0 50 50" version="1.1" xmlns="http://www.w3.org/2000/svg" xmlns:xlink="http://www.w3.org/1999/xlink">
    <!-- Generator: Sketch 40.1 (33804) - http://www.bohemiancoding.com/sketch -->
    <title>timer_fill</title>
    <desc>Created with Sketch.</desc>
    <defs></defs>
    <g id="Page-1" stroke="none" stroke-width="1" fill="none" fill-rule="evenodd">
        <g id="timer_fill" fill="#000000">
            <path d="M25.1632729,4.5865491 C36.3624978,4.67428004 45.4140902,13.7800837 45.4140902,25 C45.4140902,36.2743907 36.2743907,45.4140902 25,45.4140902 C13.7256093,45.4140902 4.58590978,36.2743907 4.58590978,25 C4.58590978,19.4969544 6.76337878,14.5024839 10.3037274,10.831178 C10.404884,10.7262796 10.5071532,10.6224615 10.610516,10.5197425 L10.6105089,10.5197354 L11.7623071,11.6775348 C11.7010426,11.7384118 11.6401957,11.7997086 11.579771,11.8614204 C8.26350011,15.2483335 6.219037,19.8854118 6.219037,25 C6.219037,35.3724395 14.6275605,43.780963 25,43.780963 C35.3724395,43.780963 43.780963,35.3724395 43.780963,25 C43.780963,14.6820393 35.460535,6.30741872 25.1632729,6.21973194 L25.1632729,15.2012367 L23.5301456,15.2012367 L23.5301456,4.58590978 L25.1632729,4.58590978 L25.1632729,4.5865491 Z M25,50 C38.8071187,50 50,38.8071187 50,25 C50,11.1928813 38.8071187,0 25,0 C11.1928813,0 0,11.1928813 0,25 C0,38.8071187 11.1928813,50 25,50 L25,50 Z M14.2322681,14.1309924 L28.2410853,24.2303363 C28.2410853,24.2303363 28.9140266,25.5648748 27.4570298,27.1728593 C26.0000331,28.7808437 24.1147621,28.2586525 24.1147621,28.2586525 L14.2322681,14.1309924 L14.2322681,14.1309924 Z" id="Combined-Shape"></path>
        </g>
    </g>
</svg>

<svg width="50" height="50" xmlns="http://www.w3.org/2000/svg"><path d="M25.163 4.587c11.2.087 20.251 9.193 20.251 20.413 0 11.274-9.14 20.414-20.414 20.414-11.274 0-20.414-9.14-20.414-20.414a20.346 20.346 0 0 1 6.025-14.48l1.151 1.158-.182.183A18.72 18.72 0 0 0 6.219 25c0 10.372 8.409 18.781 18.781 18.781 10.372 0 18.781-8.409 18.781-18.781 0-10.318-8.32-18.693-18.618-18.78v8.98H23.53V4.586h1.633zM25 50c13.807 0 25-11.193 25-25S38.807 0 25 0 0 11.193 0 25s11.193 25 25 25zM14.232 14.131l14.01 10.1s.672 1.334-.785 2.942-3.342 1.086-3.342 1.086L14.232 14.13z" fill-rule="evenodd"/></svg>
